X:1
T:Title
%%score ( 1 2 ) { 3 | 4 }
L:1/8
Q:1/4=105
M:3/4
K:A
V:1 treble nm="Grand Piano, Soprano"
V:2 treble 
V:3 bass nm="Choir Pad, Timna, Lowell Mason, 1841"
V:4 bass 
V:1
 [CE]2 [Ec]2 [DB]2 | [CA]2 [FB]2 [EA]2 | [DG]2 [CA]4 | [Ec]2 [EB]2 [^DA]2 | [EG]2 [FA]2 [EG]2 | %5
w: By~Lowell~Mason,~1841 * *|||||
 [^DF]2 E4 | E2 [EA]2 [DB]2 | [Cc]2 F2 [FB]2 | [EA]2 A2 G2 | [EA]2 [DF]2 [DF]2 | %10
w: |||||
 [FB]2 [EB]2 [EA]2 | [DG]2 [CA]4- | [CA]4 z2 |] %13
w: |||
V:2
 x6 | x6 | x6 | x6 | x6 | x6 | x6 | x6 | z2 E4 | x6 | x6 | x6 | x6 |] %13
V:3
 A,2 A,2 G,2 | A,2 D2 C2 | B,2 A,4 | A,2 G,2 F,2 | E,2 C2 B,2 | A,2 G,4 | G,2 A,2 G,2 | %7
 A,2 A,2[K:treble] D2 | C2 C2 B,2 | A,2[K:bass] A,2 A,2 | D2 D2 C2 | B,2 A,4- | A,4 z2 |] %13
V:4
 A,,2 z2 E,2 | F,2 D,2 E,2 | E,2 A,,4 | A,,2 E,2 B,,2 | C,2 A,,2 B,,2 | B,,2 E,4 | E,D, C,2 B,,2 | %7
 A,,2 D,2 B,,2 | C,D, E,4 | C,2 D,2 D,2 | B,,2 E,2 E,2 | E,2 A,,4- | A,,4 z2 |] %13

